ui/icon/svg/cellular-sharp.svg

<svg viewBox="0 0 512 512" xmlns="http://www.w3.org/2000/svg"><path d="m496 432h-96v-352h96zm-128 0h-96v-272h96zm-128 0h-96v-208h96zm-128 0h-96v-144h96z"/></svg>

<svg xmlns="http://www.w3.org/2000/svg" class="ionicon" viewBox="0 0 512 512"><title>Cellular</title><path d="M496 432h-96V80h96zM368 432h-96V160h96zM240 432h-96V224h96zM112 432H16V288h96z"/></svg>
